X: 2078
T: Walking on Ice
R: jig
C: Rick Gagne
N: 1999 on tenor banjo
M: 6/8
Q: 1/4=165
K: Ddor
E | "Dm"FAF DED | FAF dcA | "C"EFE c2d | cAG EFG | 
"Dm"FAF DED | FAF dcA | "C"EFE c2d | cAG "Dm"D2  :|
e | "Dm"fed "Am"cAa | "Em"geg "A5"age | age "D5"dec | "E"BA^G "A5"ABA | 
"A"^cBA "D"^fAg | ^fed de^f | "Em"g^fe "Bm"^fdB | "D"A^FA "G"B2 :|
